X: 19126
T: Irish Washerwoman, The
R: jig
M: 6/8
K: Gmajor
|:BGG DGG|BGB dcB|cAA EAA|cAc edc|
BGG DGG|BGB dcB|cBc Adc|BGG G3:|
|:gdd Bdd|gdg bag|fdd Add|fdf agf|
egg dgg|cgg BgB|cBc Adc|BGG G3:|

